dist/images/secure.svg

<svg width="40" height="40" viewBox="0 0 40 40" fill="none" xmlns="http://www.w3.org/2000/svg">
<path d="M17 19.5303L19 21.5512L23.5 17.0043M28 20.0356C28 24.9952 22.646 28.6024 20.698 29.7507C20.4766 29.8812 20.3659 29.9464 20.2097 29.9803C20.0884 30.0066 19.9116 30.0066 19.7903 29.9803C19.6341 29.9464 19.5234 29.8812 19.302 29.7507C17.354 28.6024 12 24.9952 12 20.0356V15.2033C12 14.3954 12 13.9915 12.1308 13.6443C12.2463 13.3376 12.434 13.0639 12.6777 12.8469C12.9535 12.6013 13.3278 12.4595 14.0764 12.1758L19.4382 10.1442C19.6461 10.0654 19.75 10.026 19.857 10.0104C19.9518 9.99654 20.0482 9.99654 20.143 10.0104C20.25 10.026 20.3539 10.0654 20.5618 10.1442L25.9236 12.1758C26.6722 12.4595 27.0465 12.6013 27.3223 12.8469C27.566 13.0639 27.7537 13.3376 27.8692 13.6443C28 13.9915 28 14.3954 28 15.2033V20.0356Z" stroke="#6A994E" stroke-width="1.5" stroke-linecap="round" stroke-linejoin="round"/>
<rect x="0.75" y="0.75" width="38.5" height="38.5" rx="19.25" stroke="#6A994E" stroke-width="1.5"/>
</svg>

<svg width="40" height="40" fill="none" xmlns="http://www.w3.org/2000/svg"><path d="M17 19.53l2 2.021 4.5-4.547m4.5 3.032c0 4.96-5.354 8.566-7.302 9.715-.221.13-.332.195-.488.23a1.125 1.125 0 01-.42 0c-.156-.035-.267-.1-.488-.23C17.354 28.602 12 24.995 12 20.036v-4.833c0-.808 0-1.211.13-1.559a2.03 2.03 0 01.548-.797c.275-.246.65-.387 1.398-.671l5.362-2.032c.208-.079.312-.118.419-.134a.989.989 0 01.286 0c.107.016.21.055.419.134l5.362 2.032c.748.284 1.123.425 1.398.67.244.218.432.492.547.798.131.348.131.751.131 1.56v4.832z" stroke="#6A994E" stroke-width="1.5" stroke-linecap="round" stroke-linejoin="round"/><rect x=".75" y=".75" width="38.5" height="38.5" rx="19.25" stroke="#6A994E" stroke-width="1.5"/></svg>
